X:1
T:Hyfrydol
T:Richard Huw Pritchard
T:(Alleluia, sing to Jesus)
T:87 87 D
%%score { ( 1 2 ) | ( 3 4 ) }
L:1/8
M:none
K:F
V:1 treble nm="Organ"
V:2 treble 
V:3 bass 
V:4 bass 
V:1
 F4 G2 | (F3 G) A2 | B4 A2 | (G2 F2) G2 | c4 B2 | A4 A2 | (G2 F2) G2 | F6 :| c4 c2 | (c2 B2) A2 | %10
 B4 B2 | (B2 A2) G2 | A4 A2 | (A2 B2) c2 | (c2 B2) A2 | G6 || (c2 A2) c2 | (B2 G2) B2 | %18
 (A2 F2) A2 | (GA BA) G2 | c4 c2 | d2 c2 B2 | A4 G2 | F6 |] %24
V:2
 C4 E2 | F4 F2 | G4 F2 | (E2 D2) E2 | (F2 C2) DE | F4 FE | D4 E2 | F6 :| E4 E2 | F4 F2 | %10
 (F2 E2) D2 | (E2 F2) C2 | C4 F2 | (F2 G2) A2 | (A2 G2) F2 | (F4 E2) || F4 A2 | G4 G2 | %18
 (F2 C2) F2 | (GE F2) C2 | (C2 F2) _E2 | D2 F2 F2 | F4 E2 | F6 |] %24
V:3
 A,4 G,2 | (A,3 B,) C2 | (D2 C2) C2 | (C2 A,2) C2 | C4 C2 | C4 C2 | (B,2 A,2) C2 | A,6 :| C4 C2 | %9
 (F,2 G,2) A,2 | G,4 G,2 | (G,2 C2) B,2 | A,4 C2 | D4 C2 | D4 D2 | G,6 || C4 D2 | D4 C2 | %18
 (C2 A,2) =B,2 | (C2 _B,2) B,2 | A,4 C2 | B,2 C2 D2 | C4 B,2 | A,6 |] %24
V:4
 (F,,2 A,,2) C,2 | F,4 F,2 | (F,2 E,2) F,2 | (C,2 D,2) C,2 | A,4 G,2 | F,4 A,,2 | (B,,2 D,2) C,2 | %7
 F,6 :| A,4 A,2 | D,4 D,2 | G,4 G,2 | (C,2 D,2) E,2 | F,4 E,2 | D,4 A,,2 | G,,4 B,,2 | C,6 || %16
 A,4 F,2 | (F,2 E,D,) E,2 | (F,2 E,2) D,2 | (E,C, D,2) E,2 | F,4 A,,2 | B,,2 A,,2 B,,2 | C,4 C,2 | %23
 F,6 |] %24

